X: 36562
T: Shack A Lack
R: jig
M: 6/8
K: Bminor
~B3 BAF|~B3 ABd|~B3 BAF|1 GBd fed:|2 G2f edf ]|
|:~a3 fed|B2A B/c/df|~a3 fed|1 B2f edf:|2 B2f ecA||

